X:29
T:GB/7a/29 Banks of Sweet Primroses, The
%%VWML:GB-7a-29-0
F:http://www.vwml.org/record/GB/7a/29
T:Version 2 of 2
C:Shoreham Workhouse, Sussex, I. 09
C:Transcribed by Simon Furey and Lewis Jones
L:1/4
M:3/2
I:linebreak $
K:G
D | G F G3 A/B/ | c A F D z B | c c B3/2 A/ G E | F G A2 z B |$ c e d2 G A | B A G2 D A/G/ | [M:5/4] F D G d c |[M:3/4] B/G/ A A | G2 |]

